; generated by SuperSlicer 2.4 on 2024-01-18 at 07:47:40 UTC


;
;

;
;
; 

; external perimeters extrusion width = 0.45mm
; perimeters extrusion width = 0.45mm
; infill extrusion width = 0.45mm
; solid infill extrusion width = 0.45mm
; top infill extrusion width = 0.40mm
; first layer extrusion width = 0.42mm

; object:{"name":"leva1","id":"leva1.stl id:0 copy 0","object_center":[112.500000,105.000000,0.000000],"boundingbox_center":[112.500000,105.000000,3.000000],"boundingbox_size":[20.000000,60.500000,6.000000]}
; Total objects to print: 1
M486 T1
; plater:{"center":[112.500000,105.000000,0.000000],"boundingbox_center":[112.500000,105.000000,3.000000],"boundingbox_size":[20.000000,60.500000,6.000000]}

;TYPE:Custom
G90 ; use absolute coordinates
M83 ; extruder relative mode
M104 S120 ; set temporary nozzle temp to prevent oozing during homing and auto bed leveling
M140 S60 ; set final bed temp
G4 S10 ; allow partial nozzle warmup
G28 ; home all axis
;G29  ; run ABL mesh, remove ; to enable for BLTouch etc
;M420 S1 ; enable mesh, remove ; to enable for manual mesh setup or ABL setup
G1 Z50 F240
G1 X2 Y10 F3000
M104 S210 ; set final nozzle temp
M190 S60 ; wait for bed temp to stabilize
M109 S210 ; wait for nozzle temp to stabilize
G1 Z0.28 F240
G92 E0
G1 Y140 E10 F1500 ; prime the nozzle
G1 X2.3 F5000
G92 E0
G1 Y10 E10 F1200 ; prime the nozzle
G92 E0
M107
G21 ; set units to millimeters
G90 ; use absolute coordinates
M83 ; use relative distances for extrusion
; Filament gcode
;_TOOLCHANGE 0
M107
;LAYER_CHANGE
;Z:0.2
;HEIGHT:0.2
;BEFORE_LAYER_CHANGE
G92 E0
;0.2


G1 E-5 F3600
G1 Z0.2 F9000
;AFTER_LAYER_CHANGE
;0.2
G1 X102.868 Y77.199
G1 E5 F2400
;TYPE:Skirt
;WIDTH:0.52
G1 F1200
G1 X101.666 Y79.056 E0.08777
G1 X101.039 Y80.453 E0.06074
G1 X100.517 Y82.254 E0.07435
G1 X100.261 Y84.367 E0.08445
G1 X100.261 Y125.25 E1.6218
G1 X100.507 Y127.659 E0.09606
G1 X100.982 Y129.38 E0.07083
G1 X101.703 Y131.016 E0.0709
G1 X102.654 Y132.527 E0.07084
G1 X103.813 Y133.883 E0.07079
G1 X104.9 Y134.858 E0.05793
G1 X106.377 Y135.864 E0.07087
G1 X107.983 Y136.644 E0.07084
G1 X109.688 Y137.181 E0.07089
G1 X111.777 Y137.489 E0.08377
G1 X113.237 Y137.489 E0.05792
G1 X115.008 Y137.252 E0.07087
G1 X117.03 Y136.644 E0.08375
G1 X118.352 Y136.024 E0.05792
G1 X119.853 Y135.059 E0.0708
G1 X121.2 Y133.884 E0.07091
G1 X122.36 Y132.527 E0.07083
G1 X123.46 Y130.724 E0.08378
G1 X124.031 Y129.38 E0.05793
G1 X124.506 Y127.659 E0.07083
G1 X124.739 Y125.642 E0.08054
G1 X124.739 Y85.25 E1.60232
G1 X124.709 Y84.111 E0.04519
G1 X124.468 Y82.252 E0.07435
G1 X123.947 Y80.455 E0.07425
G1 X123.321 Y79.058 E0.06073
G1 X122.325 Y77.471 E0.0743
G1 X121.098 Y76.055 E0.07433
G1 X119.67 Y74.844 E0.07427
G1 X118.075 Y73.864 E0.07428
G1 X116.346 Y73.14 E0.07434
G1 X114.529 Y72.687 E0.07429
G1 X112.664 Y72.518 E0.07429
G1 X110.795 Y72.635 E0.07429
G1 X108.639 Y73.14 E0.08785
G1 X106.91 Y73.864 E0.07434
G1 X105.594 Y74.647 E0.06075
G1 X104.134 Y75.818 E0.07426
G1 X102.909 Y77.155 E0.07193
G1 E-3.5 F3600
;WIPE_START
G1 F7200
G1 X101.666 Y79.056 E-1.07909
G1 X101.368 Y79.721 E-0.34591
;WIPE_END
G1 E-0.075 F3600
; printing object leva1.stl id:0 copy 0
M486 S0
G1 X111.206 Y130.491 F9000
G1 E5 F2400
;TYPE:Internal perimeter
;WIDTH:0.42
G1 F1200
G1 X110.919 Y130.741 E0.01193
G1 X110.661 Y131.067 E0.01304
G1 X110.469 Y131.439 E0.01312
G1 X110.352 Y131.839 E0.01307
G1 X110.313 Y132.253 E0.01303
G1 X110.352 Y132.668 E0.01307
G1 X110.469 Y133.068 E0.01307
G1 X110.661 Y133.44 E0.01312
G1 X110.919 Y133.767 E0.01307
G1 X111.233 Y134.039 E0.01303
G1 X111.671 Y134.292 E0.01585
G1 X111.589 Y134.528 E0.00782
G1 X110.482 Y134.365 E0.03509
G1 X109.18 Y133.974 E0.04262
G1 X107.949 Y133.396 E0.04263
G1 X106.816 Y132.647 E0.04259
G1 X105.804 Y131.739 E0.04263
G1 X104.934 Y130.694 E0.04263
G1 X104.226 Y129.534 E0.04262
G1 X103.694 Y128.283 E0.04263
G1 X103.35 Y126.968 E0.04261
G1 X103.27 Y126.236 E0.02309
G1 X103.518 Y126.168 E0.00807
G1 X103.602 Y126.353 E0.00637
G1 X103.845 Y126.693 E0.01312
G1 X104.147 Y126.981 E0.01308
G1 X104.497 Y127.206 E0.01305
G1 X104.883 Y127.36 E0.01302
G1 X105.292 Y127.44 E0.01309
G1 X105.712 Y127.44 E0.01315
G1 X106.12 Y127.36 E0.01306
G1 X106.506 Y127.206 E0.01302
G1 X106.856 Y126.981 E0.01305
G1 X107.158 Y126.693 E0.01308
G1 X107.401 Y126.353 E0.01309
G1 X107.574 Y125.974 E0.01309
G1 X107.605 Y125.847 E0.00409
G1 X107.847 Y125.852 E0.0076
G1 X107.969 Y126.464 E0.01956
G1 X108.166 Y127.046 E0.01926
G1 X108.438 Y127.595 E0.01923
G1 X108.779 Y128.106 E0.01925
G1 X109.183 Y128.567 E0.01922
G1 X109.644 Y128.971 E0.01922
G1 X110.155 Y129.312 E0.01925
G1 X110.704 Y129.584 E0.01923
G1 X111.286 Y129.781 E0.01926
G1 X111.926 Y129.908 E0.02046
G1 X111.942 Y130.138 E0.00723
G1 X111.594 Y130.259 E0.01155
G1 X111.254 Y130.455 E0.01232
G1 E-3.5 F3600
;WIPE_START
G1 F7200
G1 X110.919 Y130.741 E-0.2091
G1 X110.661 Y131.067 E-0.19755
G1 X110.469 Y131.439 E-0.19871
G1 X110.352 Y131.839 E-0.19801
G1 X110.313 Y132.253 E-0.19747
G1 X110.352 Y132.668 E-0.19799
G1 X110.469 Y133.068 E-0.19806
G1 X110.496 Y133.121 E-0.02812
;WIPE_END
G1 E-0.075 F3600
G1 X117.587 Y126.319 F9000
G1 E5 F2400
G1 F1200
G1 X117.602 Y126.353 E0.00114
G1 X117.845 Y126.693 E0.01312
G1 X118.147 Y126.981 E0.01308
G1 X118.497 Y127.206 E0.01305
G1 X118.883 Y127.36 E0.01302
G1 X119.292 Y127.44 E0.01309
G1 X119.712 Y127.44 E0.01315
G1 X120.12 Y127.36 E0.01306
G1 X120.506 Y127.206 E0.01302
G1 X120.856 Y126.981 E0.01305
G1 X121.158 Y126.693 E0.01308
G1 X121.401 Y126.353 E0.01309
G1 X121.499 Y126.139 E0.0074
G1 X121.746 Y126.207 E0.00806
G1 X121.663 Y126.968 E0.02399
G1 X121.319 Y128.283 E0.04261
G1 X120.787 Y129.534 E0.04263
G1 X120.08 Y130.694 E0.0426
G1 X119.21 Y131.739 E0.04262
G1 X118.197 Y132.647 E0.04265
G1 X117.064 Y133.396 E0.0426
G1 X115.833 Y133.974 E0.04263
G1 X114.531 Y134.365 E0.04262
G1 X113.394 Y134.532 E0.03605
G1 X113.319 Y134.281 E0.00821
G1 X113.601 Y134.153 E0.0097
G1 X113.941 Y133.91 E0.0131
G1 X114.228 Y133.609 E0.01305
G1 X114.454 Y133.259 E0.01307
G1 X114.609 Y132.871 E0.01309
G1 X114.688 Y132.461 E0.01308
G1 X114.688 Y132.046 E0.01304
G1 X114.609 Y131.636 E0.01308
G1 X114.454 Y131.248 E0.01309
G1 X114.228 Y130.898 E0.01307
G1 X113.941 Y130.597 E0.01305
G1 X113.601 Y130.354 E0.0131
G1 X113.223 Y130.182 E0.01302
G1 X113.082 Y130.148 E0.00454
G1 X113.088 Y129.905 E0.00759
G1 X113.714 Y129.781 E0.02001
G1 X114.296 Y129.584 E0.01926
G1 X114.845 Y129.312 E0.01923
G1 X115.356 Y128.971 E0.01925
G1 X115.817 Y128.567 E0.01922
G1 X116.221 Y128.106 E0.01922
G1 X116.562 Y127.595 E0.01925
G1 X116.834 Y127.046 E0.01923
G1 X117.031 Y126.464 E0.01926
G1 X117.154 Y125.843 E0.01985
G1 X117.396 Y125.837 E0.00759
G1 X117.43 Y125.974 E0.00441
G1 X117.562 Y126.265 E0.01001
G1 E-3.5 F3600
;WIPE_START
G1 F7200
G1 X117.602 Y126.353 E-0.04584
G1 X117.845 Y126.693 E-0.19877
G1 X118.147 Y126.981 E-0.19814
G1 X118.497 Y127.206 E-0.19768
G1 X118.883 Y127.36 E-0.1973
G1 X119.292 Y127.44 E-0.19829
G1 X119.712 Y127.44 E-0.19924
G1 X120.104 Y127.363 E-0.18975
;WIPE_END
G1 E-0.075 F3600
G1 X112.025 Y116.117 F9000
G1 E5 F2400
G1 F1200
G1 X111.988 Y116.122 E0.00115
G1 X111.594 Y116.259 E0.01308
G1 X111.233 Y116.467 E0.01305
G1 X110.919 Y116.741 E0.01309
G1 X110.661 Y117.067 E0.01304
G1 X110.469 Y117.439 E0.01312
G1 X110.352 Y117.839 E0.01307
G1 X110.313 Y118.253 E0.01303
G1 X110.352 Y118.668 E0.01307
G1 X110.469 Y119.068 E0.01307
G1 X110.661 Y119.44 E0.01312
G1 X110.919 Y119.767 E0.01307
G1 X111.233 Y120.039 E0.01303
G1 X111.593 Y120.247 E0.01304
G1 X111.929 Y120.364 E0.01115
G1 X111.913 Y120.594 E0.00723
G1 X111.286 Y120.719 E0.02005
G1 X110.704 Y120.916 E0.01926
G1 X110.155 Y121.188 E0.01923
G1 X109.644 Y121.529 E0.01925
G1 X109.183 Y121.933 E0.01922
G1 X108.779 Y122.394 E0.01922
G1 X108.438 Y122.905 E0.01925
G1 X108.166 Y123.454 E0.01923
G1 X107.969 Y124.036 E0.01926
G1 X107.843 Y124.668 E0.0202
G1 X107.613 Y124.684 E0.00723
G1 X107.496 Y124.347 E0.0112
G1 X107.289 Y123.986 E0.01305
G1 X107.015 Y123.669 E0.01314
G1 X106.686 Y123.412 E0.01307
G1 X106.317 Y123.222 E0.01303
G1 X105.917 Y123.103 E0.01308
G1 X105.502 Y123.064 E0.01307
G1 X105.086 Y123.103 E0.01311
G1 X104.686 Y123.222 E0.01308
G1 X104.316 Y123.412 E0.01305
G1 X103.989 Y123.669 E0.01305
G1 X103.716 Y123.985 E0.01308
G1 X103.507 Y124.347 E0.0131
G1 X103.439 Y124.544 E0.00654
G1 X103.187 Y124.502 E0.00801
G1 X103.187 Y85.937 E1.20917
G1 X103.248 Y85.937 E0.00191
G1 X103.189 Y84.393 E0.04844
G1 X103.352 Y82.977 E0.0447
G1 X103.73 Y81.603 E0.04468
G1 X104.313 Y80.302 E0.0447
G1 X105.088 Y79.106 E0.0447
G1 X106.036 Y78.041 E0.04468
G1 X107.136 Y77.135 E0.04469
G1 X108.361 Y76.406 E0.0447
G1 X109.683 Y75.873 E0.04469
G1 X111.071 Y75.548 E0.04471
G1 X112.493 Y75.439 E0.04471
G1 X112.822 Y75.464 E0.01035
G1 X113.914 Y75.548 E0.03433
G1 X115.302 Y75.873 E0.04471
G1 X116.624 Y76.406 E0.04469
G1 X117.849 Y77.135 E0.0447
G1 X118.949 Y78.042 E0.0447
G1 X119.898 Y79.106 E0.0447
G1 X120.673 Y80.302 E0.04469
G1 X121.255 Y81.603 E0.04469
G1 X121.633 Y82.977 E0.04469
G1 X121.796 Y84.393 E0.0447
G1 X121.738 Y85.937 E0.04844
G1 X121.813 Y85.937 E0.00235
G1 X121.813 Y124.493 E1.20889
G1 X121.562 Y124.535 E0.00799
G1 X121.496 Y124.347 E0.00626
G1 X121.289 Y123.986 E0.01305
G1 X121.015 Y123.669 E0.01314
G1 X120.686 Y123.412 E0.01307
G1 X120.317 Y123.222 E0.01303
G1 X119.917 Y123.103 E0.01308
G1 X119.502 Y123.064 E0.01307
G1 X119.086 Y123.103 E0.01311
G1 X118.686 Y123.222 E0.01308
G1 X118.316 Y123.412 E0.01305
G1 X117.989 Y123.669 E0.01305
G1 X117.716 Y123.985 E0.01308
G1 X117.507 Y124.347 E0.0131
G1 X117.388 Y124.691 E0.0114
G1 X117.158 Y124.675 E0.00724
G1 X117.031 Y124.036 E0.02042
G1 X116.834 Y123.454 E0.01926
G1 X116.562 Y122.905 E0.01923
G1 X116.221 Y122.394 E0.01925
G1 X115.817 Y121.933 E0.01922
G1 X115.356 Y121.529 E0.01922
G1 X114.845 Y121.188 E0.01925
G1 X114.296 Y120.916 E0.01923
G1 X113.714 Y120.719 E0.01926
G1 X113.104 Y120.598 E0.01951
G1 X113.098 Y120.356 E0.00759
G1 X113.223 Y120.325 E0.00403
G1 X113.601 Y120.153 E0.01302
G1 X113.941 Y119.91 E0.0131
G1 X114.228 Y119.609 E0.01305
G1 X114.454 Y119.259 E0.01307
G1 X114.609 Y118.871 E0.01309
G1 X114.688 Y118.461 E0.01308
G1 X114.688 Y118.046 E0.01304
G1 X114.609 Y117.636 E0.01308
G1 X114.454 Y117.248 E0.01309
G1 X114.228 Y116.898 E0.01307
G1 X113.941 Y116.597 E0.01305
G1 X113.601 Y116.354 E0.0131
G1 X113.223 Y116.182 E0.01302
G1 X112.817 Y116.083 E0.0131
G1 X112.401 Y116.064 E0.01305
G1 X112.084 Y116.109 E0.01004
G1 X112.078 Y116.49 F9000
;TYPE:External perimeter
G1 F1200
G1 X111.752 Y116.604 E0.01082
G1 X111.453 Y116.775 E0.01079
G1 X111.193 Y117.002 E0.01083
G1 X110.979 Y117.272 E0.0108
G1 X110.821 Y117.579 E0.01084
G1 X110.724 Y117.91 E0.01081
G1 X110.692 Y118.253 E0.01079
G1 X110.724 Y118.597 E0.01082
G1 X110.821 Y118.928 E0.01081
G1 X110.979 Y119.235 E0.01084
G1 X111.193 Y119.505 E0.01081
G1 X111.453 Y119.731 E0.0108
G1 X111.751 Y119.903 E0.01079
G1 X112.078 Y120.017 E0.01084
G1 X112.419 Y120.065 E0.01082
G1 X112.763 Y120.049 E0.0108
G1 X113.099 Y119.967 E0.01084
G1 X113.412 Y119.825 E0.01077
G1 X113.693 Y119.624 E0.01084
G1 X113.931 Y119.375 E0.0108
G1 X114.118 Y119.085 E0.01081
G1 X114.246 Y118.765 E0.01082
G1 X114.311 Y118.426 E0.01083
G1 X114.311 Y118.081 E0.01079
G1 X114.246 Y117.742 E0.01083
G1 X114.118 Y117.422 E0.01082
G1 X113.931 Y117.132 E0.01081
G1 X113.693 Y116.883 E0.0108
G1 X113.412 Y116.682 E0.01084
G1 X113.099 Y116.54 E0.01077
G1 X112.763 Y116.458 E0.01084
G1 X112.419 Y116.442 E0.0108
G1 X112.137 Y116.482 E0.00894
;WIPE_START
G1 X111.792 Y116.21 F9000
;WIPE_END
G1 E-3.5 F3600
;WIPE_START
G1 F7200
G1 X111.337 Y116.612 E-0.28862
G1 X111.047 Y116.864 E-0.18222
G1 X110.81 Y117.163 E-0.18158
G1 X110.634 Y117.505 E-0.18248
G1 X110.527 Y117.873 E-0.18192
G1 X110.491 Y118.253 E-0.1815
G1 X110.527 Y118.634 E-0.18201
G1 X110.553 Y118.725 E-0.04467
;WIPE_END
G1 E-0.075 F3600
G1 X112.102 Y120.963 F9000
G1 E5 F2400
G1 F1200
G1 X111.938 Y120.974 E0.00517
G1 X111.384 Y121.084 E0.0177
G1 X110.849 Y121.265 E0.0177
G1 X110.344 Y121.515 E0.01768
G1 X109.874 Y121.829 E0.01771
G1 X109.45 Y122.2 E0.01767
G1 X109.079 Y122.624 E0.01767
G1 X108.765 Y123.094 E0.01771
G1 X108.515 Y123.599 E0.01768
G1 X108.334 Y124.134 E0.0177
G1 X108.224 Y124.687 E0.01769
G1 X108.186 Y125.25 E0.01768
G1 X108.224 Y125.813 E0.01768
G1 X108.334 Y126.366 E0.01769
G1 X108.515 Y126.901 E0.0177
G1 X108.765 Y127.406 E0.01768
G1 X109.079 Y127.876 E0.01771
G1 X109.45 Y128.3 E0.01767
G1 X109.874 Y128.671 E0.01767
G1 X110.344 Y128.985 E0.01771
G1 X110.849 Y129.235 E0.01768
G1 X111.384 Y129.416 E0.0177
G1 X111.937 Y129.526 E0.01769
G1 X112.5 Y129.564 E0.01768
G1 X113.063 Y129.526 E0.01768
G1 X113.616 Y129.416 E0.01769
G1 X114.151 Y129.235 E0.0177
G1 X114.656 Y128.985 E0.01768
G1 X115.126 Y128.671 E0.01771
G1 X115.55 Y128.3 E0.01767
G1 X115.921 Y127.876 E0.01767
G1 X116.235 Y127.406 E0.01771
G1 X116.485 Y126.901 E0.01768
G1 X116.666 Y126.366 E0.0177
G1 X116.776 Y125.813 E0.01769
G1 X116.814 Y125.25 E0.01768
G1 X116.776 Y124.687 E0.01768
G1 X116.666 Y124.134 E0.01769
G1 X116.485 Y123.599 E0.0177
G1 X116.235 Y123.094 E0.01768
G1 X115.921 Y122.624 E0.01771
G1 X115.55 Y122.2 E0.01767
G1 X115.126 Y121.829 E0.01767
G1 X114.656 Y121.515 E0.01771
G1 X114.151 Y121.265 E0.01768
G1 X113.616 Y121.084 E0.0177
G1 X113.062 Y120.974 E0.0177
G1 X112.5 Y120.937 E0.01767
G1 X112.219 Y120.956 E0.00883
G1 X112.162 Y120.959 E0.00179
;WIPE_START
G1 X111.88 Y120.631 F9000
;WIPE_END
G1 E-3.5 F3600
;WIPE_START
G1 F7200
G1 X111.332 Y120.89 E-0.28804
G1 X110.772 Y121.08 E-0.28071
G1 X110.243 Y121.341 E-0.28032
G1 X109.752 Y121.67 E-0.28066
G1 X109.309 Y122.059 E-0.28016
G1 X109.288 Y122.083 E-0.01512
;WIPE_END
G1 E-0.075 F3600
G1 X106.98 Y124.205 F9000
G1 E5 F2400
G1 F1200
G1 X106.754 Y123.943 E0.01084
G1 X106.482 Y123.731 E0.01081
G1 X106.176 Y123.573 E0.0108
G1 X105.845 Y123.475 E0.01082
G1 X105.502 Y123.443 E0.01081
G1 X105.158 Y123.475 E0.01084
G1 X104.827 Y123.573 E0.01082
G1 X104.521 Y123.731 E0.01081
G1 X104.25 Y123.944 E0.01079
G1 X104.024 Y124.204 E0.01082
G1 X103.852 Y124.504 E0.01084
G1 X103.739 Y124.83 E0.0108
G1 X103.69 Y125.17 E0.01077
G1 X103.706 Y125.515 E0.01085
G1 X103.788 Y125.85 E0.0108
G1 X103.93 Y126.163 E0.0108
G1 X104.131 Y126.445 E0.01084
G1 X104.381 Y126.683 E0.01082
G1 X104.67 Y126.869 E0.01079
G1 X104.99 Y126.997 E0.01079
G1 X105.329 Y127.063 E0.01083
G1 X105.675 Y127.063 E0.01086
G1 X106.013 Y126.997 E0.0108
G1 X106.333 Y126.869 E0.01078
G1 X106.622 Y126.683 E0.01079
G1 X106.872 Y126.445 E0.01082
G1 X107.073 Y126.164 E0.01083
G1 X107.216 Y125.85 E0.01083
G1 X107.297 Y125.515 E0.01081
G1 X107.313 Y125.17 E0.01082
G1 X107.265 Y124.83 E0.01078
G1 X107.151 Y124.504 E0.01081
G1 X107.01 Y124.257 E0.00892
;WIPE_START
G1 X107.135 Y123.836 F9000
;WIPE_END
G1 E-3.5 F3600
;WIPE_START
G1 F7200
G1 X106.59 Y123.562 E-0.28973
G1 X106.251 Y123.387 E-0.18147
G1 X105.883 Y123.278 E-0.18206
G1 X105.502 Y123.242 E-0.1819
G1 X105.12 Y123.278 E-0.18242
G1 X104.752 Y123.387 E-0.18209
G1 X104.412 Y123.562 E-0.18173
G1 X104.34 Y123.619 E-0.04359
;WIPE_END
G1 E-0.075 F3600
G1 X111.453 Y130.775 F9000
G1 E5 F2400
G1 F1200
G1 X111.193 Y131.002 E0.01083
G1 X110.979 Y131.272 E0.0108
G1 X110.821 Y131.579 E0.01084
G1 X110.724 Y131.91 E0.01081
G1 X110.692 Y132.253 E0.01079
G1 X110.724 Y132.597 E0.01082
G1 X110.821 Y132.928 E0.01081
G1 X110.979 Y133.235 E0.01084
G1 X111.193 Y133.505 E0.01081
G1 X111.453 Y133.731 E0.0108
G1 X111.751 Y133.903 E0.01079
G1 X112.078 Y134.017 E0.01084
G1 X112.419 Y134.065 E0.01082
G1 X112.763 Y134.049 E0.0108
G1 X113.099 Y133.967 E0.01084
G1 X113.412 Y133.825 E0.01077
G1 X113.693 Y133.624 E0.01084
G1 X113.931 Y133.375 E0.0108
G1 X114.118 Y133.085 E0.01081
G1 X114.246 Y132.765 E0.01082
G1 X114.311 Y132.426 E0.01083
G1 X114.311 Y132.081 E0.01079
G1 X114.246 Y131.742 E0.01083
G1 X114.118 Y131.422 E0.01082
G1 X113.931 Y131.132 E0.01081
G1 X113.693 Y130.883 E0.0108
G1 X113.412 Y130.682 E0.01084
G1 X113.099 Y130.54 E0.01077
G1 X112.763 Y130.458 E0.01084
G1 X112.419 Y130.442 E0.0108
G1 X112.078 Y130.49 E0.01082
G1 X111.752 Y130.604 E0.01082
