; generated by SuperSlicer 2.4 on 2024-01-18 at 07:48:50 UTC


;
;

;
;
; 

; external perimeters extrusion width = 0.45mm
; perimeters extrusion width = 0.45mm
; infill extrusion width = 0.45mm
; solid infill extrusion width = 0.45mm
; top infill extrusion width = 0.40mm
; first layer extrusion width = 0.42mm

; object:{"name":"leva2","id":"leva2.stl id:0 copy 0","object_center":[112.579167,104.727505,0.000000],"boundingbox_center":[112.579167,104.727505,10.000000],"boundingbox_size":[56.000000,61.000000,20.000000]}
; Total objects to print: 1
M486 T1
; plater:{"center":[112.579167,104.727505,0.000000],"boundingbox_center":[112.579167,104.727505,10.000000],"boundingbox_size":[56.000000,61.000000,20.000000]}

;TYPE:Custom
G90 ; use absolute coordinates
M83 ; extruder relative mode
M104 S120 ; set temporary nozzle temp to prevent oozing during homing and auto bed leveling
M140 S60 ; set final bed temp
G4 S10 ; allow partial nozzle warmup
G28 ; home all axis
;G29  ; run ABL mesh, remove ; to enable for BLTouch etc
;M420 S1 ; enable mesh, remove ; to enable for manual mesh setup or ABL setup
G1 Z50 F240
G1 X2 Y10 F3000
M104 S210 ; set final nozzle temp
M190 S60 ; wait for bed temp to stabilize
M109 S210 ; wait for nozzle temp to stabilize
G1 Z0.28 F240
G92 E0
G1 Y140 E10 F1500 ; prime the nozzle
G1 X2.3 F5000
G92 E0
G1 Y10 E10 F1200 ; prime the nozzle
G92 E0
M107
G21 ; set units to millimeters
G90 ; use absolute coordinates
M83 ; use relative distances for extrusion
; Filament gcode
;_TOOLCHANGE 0
M107
;LAYER_CHANGE
;Z:0.2
;HEIGHT:0.2
;BEFORE_LAYER_CHANGE
G92 E0
;0.2


G1 E-5 F3600
G1 Z0.2 F9000
;AFTER_LAYER_CHANGE
;0.2
G1 X86.209 Y76.482
G1 E5 F2400
;TYPE:Skirt
;WIDTH:0.52
G1 F1200
G1 X85.262 Y77.598 E0.05808
G1 X84.315 Y79.007 E0.06734
G1 X83.735 Y80.098 E0.04901
G1 X83.172 Y81.448 E0.05803
G1 X82.698 Y83.077 E0.06731
G1 X82.446 Y84.522 E0.0582
G1 X82.351 Y85.754 E0.04902
G1 X82.341 Y115.62 E1.18473
G1 X82.573 Y117.636 E0.08054
G1 X83.048 Y119.358 E0.07083
G1 X83.619 Y120.702 E0.05793
G1 X84.719 Y122.505 E0.08378
G1 X85.879 Y123.862 E0.07083
G1 X86.967 Y124.837 E0.05795
G1 X88.443 Y125.842 E0.07083
G1 X90.286 Y126.716 E0.08091
G1 X121.868 Y137.349 E1.32194
G1 X122.582 Y137.466 E0.02871
G1 X130.663 Y137.464 E0.32056
G1 X131.694 Y137.411 E0.04096
G1 X133.541 Y137.099 E0.07428
G1 X135.318 Y136.509 E0.0743
G1 X136.985 Y135.654 E0.07432
G1 X138.502 Y134.555 E0.0743
G1 X139.832 Y133.238 E0.07427
G1 X140.947 Y131.732 E0.07431
G1 X141.818 Y130.076 E0.07425
G1 X142.427 Y128.303 E0.07436
G1 X142.757 Y126.461 E0.07425
G1 X142.818 Y124.845 E0.06416
G1 X142.78 Y84.82 E1.58774
G1 X142.404 Y82.847 E0.0797
G1 X141.982 Y81.44 E0.05825
G1 X141.42 Y80.09 E0.05803
G1 X140.72 Y78.799 E0.05822
G1 X140.03 Y77.774 E0.04902
G1 X139.101 Y76.642 E0.0581
G1 X138.06 Y75.611 E0.05814
G1 X136.916 Y74.691 E0.05821
G1 X135.688 Y73.896 E0.05806
G1 X134.17 Y73.137 E0.06731
G1 X132.794 Y72.631 E0.05819
G1 X131.374 Y72.27 E0.05809
G1 X129.925 Y72.056 E0.05811
G1 X128.579 Y71.989 E0.05346
G1 X95.182 Y72.024 E1.32483
G1 X93.555 Y72.325 E0.06566
G1 X92.14 Y72.709 E0.05815
G1 X90.773 Y73.237 E0.05814
G1 X89.667 Y73.79 E0.04905
G1 X88.424 Y74.567 E0.05813
G1 X87.269 Y75.465 E0.05807
G1 X86.253 Y76.44 E0.05587
G1 E-3.5 F3600
;WIPE_START
G1 F7200
G1 X85.262 Y77.598 E-0.72377
G1 X84.438 Y78.823 E-0.70123
;WIPE_END
G1 E-0.075 F3600
; printing object leva2.stl id:0 copy 0
M486 S0
G1 X95.814 Y120.426 F9000
G1 E5 F2400
;TYPE:Internal perimeter
;WIDTH:0.42
G1 F1200
G1 X95.485 Y120.237 E0.0119
G1 X95.137 Y120.116 E0.01155
G1 X95.153 Y119.886 E0.00723
G1 X95.793 Y119.759 E0.02045
G1 X96.375 Y119.562 E0.01926
G1 X96.925 Y119.29 E0.01923
G1 X97.435 Y118.949 E0.01925
G1 X97.896 Y118.544 E0.01922
G1 X98.3 Y118.084 E0.01922
G1 X98.641 Y117.573 E0.01925
G1 X98.913 Y117.023 E0.01923
G1 X99.11 Y116.441 E0.01926
G1 X99.232 Y115.829 E0.01956
G1 X99.474 Y115.824 E0.0076
G1 X99.505 Y115.951 E0.00409
G1 X99.679 Y116.331 E0.01309
G1 X99.921 Y116.671 E0.01309
G1 X100.223 Y116.958 E0.01308
G1 X100.573 Y117.183 E0.01305
G1 X100.96 Y117.338 E0.01305
G1 X101.369 Y117.417 E0.01305
G1 X101.786 Y117.417 E0.01308
G1 X102.195 Y117.338 E0.01308
G1 X102.582 Y117.183 E0.01306
G1 X102.932 Y116.958 E0.01305
G1 X103.235 Y116.671 E0.01308
G1 X103.477 Y116.33 E0.01312
G1 X103.561 Y116.145 E0.00637
G1 X103.809 Y116.213 E0.00807
G1 X103.729 Y116.945 E0.02309
G1 X103.385 Y118.26 E0.04261
G1 X102.854 Y119.511 E0.04263
G1 X102.145 Y120.672 E0.04262
G1 X101.275 Y121.716 E0.04263
G1 X100.263 Y122.624 E0.04263
G1 X99.13 Y123.374 E0.04259
G1 X97.899 Y123.951 E0.04263
G1 X96.597 Y124.342 E0.04262
G1 X95.49 Y124.505 E0.03509
G1 X95.408 Y124.27 E0.00782
G1 X95.846 Y124.017 E0.01585
G1 X96.16 Y123.744 E0.01303
G1 X96.418 Y123.417 E0.01307
G1 X96.61 Y123.046 E0.01312
G1 X96.727 Y122.645 E0.01307
G1 X96.766 Y122.23 E0.01307
G1 X96.727 Y121.817 E0.01303
G1 X96.61 Y121.416 E0.01307
G1 X96.418 Y121.045 E0.01312
G1 X96.161 Y120.718 E0.01304
G1 X95.863 Y120.459 E0.01236
G1 E-3.5 F3600
;WIPE_START
G1 F7200
G1 X95.485 Y120.237 E-0.20856
G1 X95.137 Y120.116 E-0.17491
G1 X95.153 Y119.886 E-0.10953
G1 X95.793 Y119.759 E-0.30988
G1 X96.375 Y119.562 E-0.2918
G1 X96.925 Y119.29 E-0.29135
G1 X96.993 Y119.244 E-0.03897
;WIPE_END
G1 E-0.075 F3600
G1 X89.957 Y115.981 F9000
G1 E5 F2400
G1 F1200
G1 X90.048 Y116.441 E0.01472
G1 X90.245 Y117.023 E0.01926
G1 X90.517 Y117.573 E0.01923
G1 X90.858 Y118.084 E0.01925
G1 X91.262 Y118.544 E0.01922
G1 X91.723 Y118.949 E0.01922
G1 X92.234 Y119.29 E0.01925
G1 X92.783 Y119.562 E0.01923
G1 X93.365 Y119.759 E0.01926
G1 X93.991 Y119.883 E0.02001
G1 X93.997 Y120.125 E0.00759
G1 X93.856 Y120.159 E0.00454
G1 X93.478 Y120.332 E0.01302
G1 X93.138 Y120.574 E0.0131
G1 X92.851 Y120.876 E0.01305
G1 X92.625 Y121.226 E0.01306
G1 X92.47 Y121.613 E0.01309
G1 X92.391 Y122.023 E0.01308
G1 X92.391 Y122.439 E0.01304
G1 X92.47 Y122.849 E0.01308
G1 X92.625 Y123.236 E0.01309
G1 X92.851 Y123.586 E0.01307
G1 X93.138 Y123.888 E0.01305
G1 X93.478 Y124.13 E0.0131
G1 X93.76 Y124.259 E0.0097
G1 X93.686 Y124.51 E0.00821
G1 X92.548 Y124.342 E0.03605
G1 X91.246 Y123.951 E0.04262
G1 X90.015 Y123.374 E0.04263
G1 X88.882 Y122.624 E0.0426
G1 X87.869 Y121.716 E0.04265
G1 X86.999 Y120.672 E0.04262
G1 X86.292 Y119.512 E0.04261
G1 X85.76 Y118.26 E0.04263
G1 X85.417 Y116.945 E0.04261
G1 X85.333 Y116.185 E0.02399
G1 X85.58 Y116.116 E0.00806
G1 X85.679 Y116.331 E0.0074
G1 X85.921 Y116.671 E0.01309
G1 X86.223 Y116.958 E0.01308
G1 X86.573 Y117.183 E0.01305
G1 X86.96 Y117.338 E0.01305
G1 X87.369 Y117.417 E0.01305
G1 X87.786 Y117.417 E0.01308
G1 X88.195 Y117.338 E0.01308
G1 X88.582 Y117.183 E0.01306
G1 X88.932 Y116.958 E0.01305
G1 X89.235 Y116.671 E0.01308
G1 X89.477 Y116.33 E0.01312
G1 X89.649 Y115.951 E0.01304
G1 X89.683 Y115.815 E0.00441
G1 X89.925 Y115.82 E0.00759
G1 X89.945 Y115.922 E0.00325
G1 E-3.5 F3600
;WIPE_START
G1 F7200
G1 X90.048 Y116.441 E-0.25157
G1 X90.245 Y117.023 E-0.2918
G1 X90.517 Y117.573 E-0.29135
G1 X90.858 Y118.084 E-0.29165
G1 X91.262 Y118.544 E-0.29119
G1 X91.274 Y118.555 E-0.00743
;WIPE_END
G1 E-0.075 F3600
G1 X85.267 Y109.801 F9000
G1 E5 F2400
G1 F1200
G1 X85.27 Y85.953 E0.74774
G1 X85.36 Y84.783 E0.0368
G1 X85.57 Y83.638 E0.03651
G1 X85.895 Y82.519 E0.03654
G1 X86.334 Y81.44 E0.03651
G1 X86.881 Y80.412 E0.03652
G1 X87.531 Y79.446 E0.03651
G1 X88.277 Y78.552 E0.0365
G1 X89.111 Y77.738 E0.03653
G1 X90.025 Y77.016 E0.03651
G1 X91.007 Y76.391 E0.03651
G1 X92.05 Y75.87 E0.03655
G1 X93.139 Y75.459 E0.03651
G1 X94.265 Y75.163 E0.03649
G1 X95.416 Y74.984 E0.03653
G1 X96.266 Y74.94 E0.0267
G1 X96.266 Y74.915 E0.00079
G1 X128.561 Y74.915 E1.01259
G1 X129.738 Y74.976 E0.03695
G1 X130.89 Y75.155 E0.03653
G1 X132.015 Y75.451 E0.03649
G1 X133.105 Y75.862 E0.03651
G1 X134.147 Y76.383 E0.03655
G1 X135.13 Y77.008 E0.03651
G1 X136.043 Y77.73 E0.03651
G1 X136.877 Y78.544 E0.03653
G1 X137.623 Y79.438 E0.0365
G1 X138.273 Y80.404 E0.03651
G1 X138.82 Y81.432 E0.03652
G1 X139.259 Y82.511 E0.03651
G1 X139.585 Y83.63 E0.03654
G1 X139.794 Y84.775 E0.03651
G1 X139.892 Y86.049 E0.04006
G1 X139.892 Y123.54 E1.17552
G1 X139.737 Y123.54 E0.00488
G1 X139.891 Y124.871 E0.04199
G1 X139.836 Y126.296 E0.0447
G1 X139.565 Y127.695 E0.04469
G1 X139.082 Y129.037 E0.0447
G1 X138.402 Y130.289 E0.04469
G1 X137.538 Y131.422 E0.04468
G1 X136.511 Y132.411 E0.0447
G1 X135.345 Y133.231 E0.04469
G1 X134.068 Y133.863 E0.04469
G1 X132.708 Y134.294 E0.04471
G1 X131.299 Y134.511 E0.0447
G1 X129.892 Y134.511 E0.04412
G1 X129.892 Y134.54 E0.00091
G1 X123.269 Y134.54 E0.20765
G1 X123.269 Y134.452 E0.00276
G1 X122.366 Y134.38 E0.02842
G1 X122.246 Y134.351 E0.00388
G1 X122.133 Y134.31 E0.00377
G1 X121.886 Y134.168 E0.00893
G1 X121.686 Y133.979 E0.0086
G1 X121.48 Y133.666 E0.01177
G1 X122.651 Y132.792 E0.04582
G1 X124.257 Y131.237 E0.07007
G1 X125.65 Y129.489 E0.07008
G1 X126.809 Y127.578 E0.07008
G1 X127.713 Y125.534 E0.07008
G1 X128.349 Y123.392 E0.07008
G1 X128.706 Y121.185 E0.0701
G1 X128.778 Y118.95 E0.07009
G1 X128.564 Y116.726 E0.07008
G1 X128.066 Y114.547 E0.07008
G1 X127.294 Y112.449 E0.07009
G1 X127.225 Y112.318 E0.00463
G1 X121.437 Y90.888 E0.69598
G1 X121.386 Y90.906 E0.00172
G1 X121.261 Y90.455 E0.01468
G1 X120.867 Y89.507 E0.03219
G1 X120.372 Y88.611 E0.0321
G1 X119.78 Y87.776 E0.03209
G1 X119.098 Y87.012 E0.03211
G1 X118.334 Y86.33 E0.03211
G1 X117.499 Y85.737 E0.03212
G1 X116.603 Y85.243 E0.03209
G1 X115.658 Y84.85 E0.03208
G1 X114.673 Y84.567 E0.03213
G1 X113.664 Y84.396 E0.03209
G1 X112.642 Y84.338 E0.03209
G1 X111.62 Y84.396 E0.03209
G1 X110.61 Y84.567 E0.03212
G1 X109.627 Y84.85 E0.03209
G1 X108.681 Y85.243 E0.03211
G1 X107.785 Y85.737 E0.03206
G1 X106.949 Y86.33 E0.03214
G1 X106.186 Y87.012 E0.03209
G1 X105.504 Y87.775 E0.0321
G1 X104.911 Y88.61 E0.03211
G1 X104.416 Y89.507 E0.03212
G1 X104.025 Y90.452 E0.03208
G1 X103.741 Y91.436 E0.03211
G1 X103.569 Y92.445 E0.03209
G1 X103.512 Y93.468 E0.0321
G1 X103.569 Y94.49 E0.0321
G1 X103.741 Y95.5 E0.03213
G1 X103.892 Y96.023 E0.01707
G1 X103.892 Y114.479 E0.57869
G1 X103.64 Y114.522 E0.00801
G1 X103.572 Y114.324 E0.00654
G1 X103.364 Y113.962 E0.0131
G1 X103.09 Y113.647 E0.01308
G1 X102.763 Y113.39 E0.01305
G1 X102.393 Y113.199 E0.01305
G1 X101.993 Y113.081 E0.01308
G1 X101.577 Y113.041 E0.01311
G1 X101.162 Y113.081 E0.01307
G1 X100.762 Y113.199 E0.01308
G1 X100.393 Y113.389 E0.01303
G1 X100.064 Y113.646 E0.01307
G1 X99.79 Y113.963 E0.01314
G1 X99.583 Y114.324 E0.01305
G1 X99.466 Y114.662 E0.0112
G1 X99.236 Y114.646 E0.00723
G1 X99.11 Y114.014 E0.0202
G1 X98.913 Y113.432 E0.01926
G1 X98.641 Y112.882 E0.01923
G1 X98.3 Y112.371 E0.01925
G1 X97.896 Y111.911 E0.01922
G1 X97.435 Y111.506 E0.01922
G1 X96.925 Y111.165 E0.01925
G1 X96.375 Y110.893 E0.01923
G1 X95.793 Y110.696 E0.01926
G1 X95.166 Y110.572 E0.02005
G1 X95.15 Y110.342 E0.00723
G1 X95.486 Y110.225 E0.01115
G1 X95.846 Y110.017 E0.01304
G1 X96.16 Y109.744 E0.01303
G1 X96.418 Y109.417 E0.01307
G1 X96.61 Y109.046 E0.01312
G1 X96.727 Y108.645 E0.01307
G1 X96.766 Y108.23 E0.01307
G1 X96.727 Y107.817 E0.01303
G1 X96.61 Y107.416 E0.01307
G1 X96.418 Y107.045 E0.01312
G1 X96.161 Y106.718 E0.01304
G1 X95.846 Y106.444 E0.01309
G1 X95.485 Y106.237 E0.01305
G1 X95.091 Y106.1 E0.01308
G1 X94.678 Y106.041 E0.01307
G1 X94.262 Y106.06 E0.01305
G1 X93.856 Y106.159 E0.0131
G1 X93.478 Y106.332 E0.01302
G1 X93.138 Y106.574 E0.0131
G1 X92.851 Y106.876 E0.01305
G1 X92.625 Y107.226 E0.01307
G1 X92.47 Y107.613 E0.01309
G1 X92.391 Y108.023 E0.01308
G1 X92.391 Y108.439 E0.01304
G1 X92.47 Y108.849 E0.01308
G1 X92.625 Y109.236 E0.01309
G1 X92.851 Y109.586 E0.01307
G1 X93.138 Y109.888 E0.01305
G1 X93.478 Y110.13 E0.0131
G1 X93.856 Y110.303 E0.01302
G1 X93.981 Y110.333 E0.00403
G1 X93.976 Y110.575 E0.00759
G1 X93.365 Y110.696 E0.01951
G1 X92.783 Y110.893 E0.01926
G1 X92.234 Y111.165 E0.01923
G1 X91.723 Y111.506 E0.01925
G1 X91.262 Y111.911 E0.01922
G1 X90.858 Y112.371 E0.01922
G1 X90.517 Y112.882 E0.01925
G1 X90.245 Y113.432 E0.01923
G1 X90.048 Y114.014 E0.01926
G1 X89.921 Y114.653 E0.02042
G1 X89.691 Y114.668 E0.00724
G1 X89.572 Y114.324 E0.0114
G1 X89.364 Y113.962 E0.0131
G1 X89.09 Y113.647 E0.01308
G1 X88.763 Y113.39 E0.01305
G1 X88.393 Y113.199 E0.01305
G1 X87.993 Y113.081 E0.01308
G1 X87.577 Y113.041 E0.01311
G1 X87.162 Y113.081 E0.01307
G1 X86.762 Y113.199 E0.01308
G1 X86.393 Y113.389 E0.01303
G1 X86.064 Y113.646 E0.01307
G1 X85.79 Y113.963 E0.01314
G1 X85.583 Y114.324 E0.01305
G1 X85.518 Y114.513 E0.00625
G1 X85.266 Y114.47 E0.00799
G1 X85.267 Y109.861 E0.14451
G1 E-3.5 F3600
;WIPE_START
G1 F7200
G1 X85.267 Y106.861 E-1.425
;WIPE_END
G1 E-0.075 F3600
G1 X99.814 Y114.807 F9000
G1 E5 F2400
;TYPE:External perimeter
G1 F1200
G1 X99.766 Y115.148 E0.01078
G1 X99.782 Y115.492 E0.01082
G1 X99.863 Y115.827 E0.01081
G1 X100.007 Y116.141 E0.01083
G1 X100.207 Y116.423 E0.01083
G1 X100.457 Y116.66 E0.01082
G1 X100.747 Y116.846 E0.01079
G1 X101.066 Y116.974 E0.0108
G1 X101.405 Y117.04 E0.0108
G1 X101.75 Y117.04 E0.01082
G1 X102.089 Y116.974 E0.01083
G1 X102.409 Y116.846 E0.0108
G1 X102.698 Y116.66 E0.01079
G1 X102.948 Y116.423 E0.01082
G1 X103.149 Y116.141 E0.01084
G1 X103.291 Y115.827 E0.0108
G1 X103.373 Y115.493 E0.0108
G1 X103.389 Y115.147 E0.01085
G1 X103.34 Y114.807 E0.01077
G1 X103.228 Y114.481 E0.0108
G1 X103.055 Y114.182 E0.01084
G1 X102.829 Y113.921 E0.01082
G1 X102.558 Y113.709 E0.01079
G1 X102.252 Y113.551 E0.01081
G1 X101.921 Y113.453 E0.01082
G1 X101.577 Y113.42 E0.01084
G1 X101.234 Y113.453 E0.01081
G1 X100.903 Y113.551 E0.01082
G1 X100.597 Y113.708 E0.0108
G1 X100.325 Y113.921 E0.01081
G1 X100.099 Y114.182 E0.01084
G1 X99.928 Y114.481 E0.01081
G1 X99.834 Y114.75 E0.00893
;WIPE_START
G1 X99.435 Y114.932 F9000
;WIPE_END
G1 E-3.5 F3600
;WIPE_START
G1 F7200
G1 X99.583 Y115.521 E-0.28831
G1 X99.673 Y115.893 E-0.182
G1 X99.833 Y116.242 E-0.1822
G1 X100.055 Y116.554 E-0.18217
G1 X100.333 Y116.818 E-0.18206
G1 X100.655 Y117.025 E-0.18163
G1 X101.01 Y117.167 E-0.18173
G1 X101.103 Y117.185 E-0.0449
;WIPE_END
G1 E-0.075 F3600
G1 X95.626 Y120.753 F9000
G1 E5 F2400
G1 F1200
G1 X95.328 Y120.581 E0.01079
G1 X95.002 Y120.468 E0.01082
G1 X94.66 Y120.42 E0.01082
G1 X94.316 Y120.435 E0.0108
G1 X93.98 Y120.517 E0.01084
G1 X93.668 Y120.66 E0.01077
G1 X93.386 Y120.86 E0.01084
G1 X93.149 Y121.11 E0.0108
G1 X92.961 Y121.4 E0.01081
G1 X92.833 Y121.72 E0.01082
G1 X92.768 Y122.059 E0.01083
G1 X92.768 Y122.403 E0.01079
G1 X92.833 Y122.742 E0.01083
G1 X92.961 Y123.062 E0.01082
G1 X93.149 Y123.352 E0.01081
G1 X93.386 Y123.602 E0.0108
G1 X93.668 Y123.802 E0.01084
G1 X93.98 Y123.945 E0.01077
G1 X94.316 Y124.027 E0.01084
G1 X94.66 Y124.042 E0.0108
G1 X95.002 Y123.994 E0.01082
G1 X95.328 Y123.881 E0.01084
G1 X95.626 Y123.708 E0.01079
G1 X95.886 Y123.483 E0.0108
G1 X96.1 Y123.212 E0.01081
G1 X96.258 Y122.905 E0.01084
G1 X96.355 Y122.574 E0.01081
G1 X96.388 Y122.23 E0.01082
G1 X96.355 Y121.888 E0.01079
G1 X96.258 Y121.557 E0.01081
G1 X96.1 Y121.25 E0.01084
G1 X95.886 Y120.98 E0.0108
G1 X95.671 Y120.792 E0.00895
;WIPE_START
G1 X95.651 Y120.354 F9000
;WIPE_END
G1 E-3.5 F3600
;WIPE_START
G1 F7200
G1 X95.049 Y120.272 E-0.28864
G1 X94.669 Y120.219 E-0.182
G1 X94.287 Y120.236 E-0.18172
G1 X93.914 Y120.328 E-0.18235
G1 X93.567 Y120.486 E-0.18125
G1 X93.254 Y120.709 E-0.18238
G1 X92.991 Y120.986 E-0.1817
G1 X92.939 Y121.065 E-0.04497
;WIPE_END
G1 E-0.075 F3600
G1 X89.149 Y116.141 F9000
G1 E5 F2400
G1 F1200
G1 X89.291 Y115.827 E0.0108
G1 X89.373 Y115.493 E0.0108
G1 X89.389 Y115.147 E0.01085
G1 X89.34 Y114.807 E0.01077
G1 X89.228 Y114.481 E0.0108
G1 X89.055 Y114.182 E0.01084
G1 X88.829 Y113.921 E0.01082
G1 X88.558 Y113.709 E0.01079
G1 X88.252 Y113.551 E0.01081
G1 X87.921 Y113.453 E0.01082
G1 X87.577 Y113.42 E0.01084
G1 X87.234 Y113.453 E0.01081
G1 X86.903 Y113.551 E0.01082
G1 X86.597 Y113.708 E0.0108
G1 X86.325 Y113.921 E0.01081
G1 X86.099 Y114.182 E0.01084
G1 X85.928 Y114.481 E0.01081
G1 X85.814 Y114.807 E0.01081
G1 X85.766 Y115.148 E0.01078
G1 X85.782 Y115.492 E0.01082
G1 X85.863 Y115.827 E0.01081
G1 X86.007 Y116.141 E0.01083
G1 X86.207 Y116.423 E0.01083
G1 X86.457 Y116.66 E0.01082
